svgs/sharp-regular/jug-detergent.svg

<svg xmlns="http://www.w3.org/2000/svg" viewBox="0 0 384 512"><!--! Font Awesome Pro 6.6.0 by @fontawesome - https://fontawesome.com License - https://fontawesome.com/license (Commercial License) Copyright 2024 Fonticons, Inc. --><path d="M224 0L96 0l0 48L64 48l0 48 192 0 0-48-32 0 0-48zM336 176l0 288L48 464l0-208c0-44.2 35.8-80 80-80l208 0zM128 128C57.3 128 0 185.3 0 256L0 464l0 48 48 0 288 0 48 0 0-48 0-288 0-48-48 0-208 0zM288 384l0-160-64 0 0 160 64 0z"/></svg>

<svg xmlns="http://www.w3.org/2000/svg" viewBox="0 0 384 512"><!--! Font Awesome Pro 6.4.2 by @fontawesome - https://fontawesome.com License - https://fontawesome.com/license (Commercial License) Copyright 2023 Fonticons, Inc. --><path d="M224 0H96V48H64V96H256V48H224V0zM336 176V464H48V256c0-44.2 35.8-80 80-80H336zM128 128C57.3 128 0 185.3 0 256V464v48H48 336h48V464 176 128H336 128zM288 384V224H224V384h64z"/></svg>
